X:1
T:Title
%%score 1 { 2 | 3 } 4
L:1/8
Q:1/4=110
M:4/4
K:C
V:1 treble nm="Grand Piano, Soprano"
V:2 bass nm="Choir Pad, Staff-1"
V:3 bass 
V:4 bass nm="Fingered Bass, The Right Shall Rule"
V:1
 z4 z2 [EG]2 | [Ec]3 [EG] [Ec]>[EG] [Gc]>[Gd] | [Ge]6 [EG]2 | [Ec]3 [Fd] [Ge][Fd][Ec][DB] | %4
 [CA]6 [FA]2 | [Fd]3 [FA] [Fd]>[FA] [Ad]>[Ae] | [Af]6 [df]2 | [ce]3 [Bd] [Gc]>[GB] [GA]>[GB] | %8
 [Ec]6 z2 | [EG]>[EG] [EG][EG] [ce]2 [Gc]2 | [FA]6- [FA][FA] | [Bd]>[Bd] [Bd][Ac] [GB]2 [FA]2 | %12
 [EG]6- [EG][EG] | [Ec]>[EG] [Ec][EG] [Ec]>[EG] [Ec][Fd] | [Ge]2 [Fd]2 [Ec]2 [df]2 | [ce]6 [Gd]2 | %16
 [Ec]8 |] %17
V:2
 z4 z2 G,2 | G,3 E, G,>G, G,>B, | C6 G,2 | C3 C CDC[K:bass]B, | A,6 A,2 | %5
 A,3 F, A,>A, A,>[K:treble]C | D6 A,2 | C3 C D>D D>D | C6 z2 | C>C CC C2 C2 | C6- CC | %11
 B,>B, B,B, B,2 A,2 | B,6- B,B, | C>C CB, A,>[K:bass]A, A,A, | B,2 B,2[K:treble] C2 C2 | %15
 C3 C C2 B,2 | G,8 |] %17
V:3
 z8 | C,3 C, C,>E, E,>F, | G,6 z2 | A,3 A, A,A,A,G, | F,6 z2 | D,3 D, D,>F, F,>G, | A,6 z2 | %7
 G,3 G, G,>G, F,>F, | C,6 z2 | G,>G, G,G, E,2 E,2 | F,6- F,A, | G,>G, G,G, G,2 F,2 | E,6- E,G, | %13
 A,>A, A,G, F,>F, F,F, | E,2 ^G,2 A,2 A,2 | E,3 F, G,2 G,,2 | C,8 |] %17
V:4
 z8 | C,8 | E,8 | A,,8 | C,8 | D,8 | F,8 | G,8 | C,8 | G,8 | F,2 E,2 D,2 C,2 | B,,6 D,2 | %12
 E,2 D,2 C,2 B,,2 | C,4 D,4 | E,2 ^G,2 A,4 | E,3 F, G,2 G,2 | [C,C]8 |] %17

